exported-svg/at-sign.svg

<svg height="24" viewBox="0 0 24 24" width="24" xmlns="http://www.w3.org/2000/svg"><path d="m15.7977937 14.414926c-.798785 1.2535792-2.2011863 2.085074-3.7977937 2.085074-2.48528137 0-4.5-2.0147186-4.5-4.5 0-2.48528137 2.01471863-4.5 4.5-4.5 2.4852814 0 4.5 2.01471863 4.5 4.5v1c0 1.3807119 1.1192881 2.5 2.5 2.5s2.5-1.1192881 2.5-2.5v-.9999685c-.000278-4.41474067-3.0417723-8.24750641-7.3409934-9.25081737-4.29922113-1.00331096-8.7230491 1.08726954-10.67741347 5.04585452-1.95436437 3.95858495-.92416502 8.74183385 2.48650366 11.54491685 3.41066867 2.803083 8.30287711 2.8872083 11.80790321.203046.2192397-.1678946.5330739-.1262712.7009685.0929685s.1262712.5330739-.0929685.7009685c-3.8739762 2.9667057-9.28115396 2.8737252-13.0508404-.2244192-3.76968643-3.0981444-4.90832782-8.3848932-2.74824088-12.76017129 2.16008694-4.37527814 7.04958101-6.68591974 11.80135168-5.5769971 4.7517708 1.10892264 8.1134223 5.34513741 8.1137296 10.22461909v1c0 1.9329966-1.5670034 3.5-3.5 3.5-1.4294396 0-2.6587353-.8569182-3.2022063-2.085074zm-3.7977937 1.085074c1.9329966 0 3.5-1.5670034 3.5-3.5s-1.5670034-3.5-3.5-3.5-3.5 1.5670034-3.5 3.5 1.5670034 3.5 3.5 3.5z"/></svg>

<?xml version="1.0" encoding="UTF-8"?>
<svg width="24px" height="24px" viewBox="0 0 24 24" version="1.1" xmlns="http://www.w3.org/2000/svg" xmlns:xlink="http://www.w3.org/1999/xlink">
    <!-- Generator: Sketch 55.2 (78181) - https://sketchapp.com -->
    <title>at-sign</title>
    <desc>Created with Sketch.</desc>
    <g id="at-sign" stroke="none" stroke-width="1" fill="none" fill-rule="evenodd">
        <path d="M15.7977937,14.414926 C14.9990087,15.6685052 13.5966074,16.5 12,16.5 C9.51471863,16.5 7.5,14.4852814 7.5,12 C7.5,9.51471863 9.51471863,7.5 12,7.5 C14.4852814,7.5 16.5,9.51471863 16.5,12 L16.5,13 C16.5,14.3807119 17.6192881,15.5 19,15.5 C20.3807119,15.5 21.5,14.3807119 21.5,13 L21.5,12.0000315 C21.499722,7.58529083 18.4582277,3.75252509 14.1590066,2.74921413 C9.85978547,1.74590317 5.4359575,3.83648367 3.48159313,7.79506865 C1.52722876,11.7536536 2.55742811,16.5369025 5.96809679,19.3399855 C9.37876546,22.1430685 14.2709739,22.2271938 17.776,19.5430315 C17.9952397,19.3751369 18.3090739,19.4167603 18.4769685,19.636 C18.6448631,19.8552397 18.6032397,20.1690739 18.384,20.3369685 C14.5100238,23.3036742 9.10284604,23.2106937 5.3331596,20.1125493 C1.56347317,17.0144049 0.424831782,11.7276561 2.58491872,7.35237801 C4.74500566,2.97709987 9.63449973,0.666458273 14.3862704,1.77538091 C19.1380412,2.88430355 22.4996927,7.12051832 22.5,12 L22.5,13 C22.5,14.9329966 20.9329966,16.5 19,16.5 C17.5705604,16.5 16.3412647,15.6430818 15.7977937,14.414926 Z M12,15.5 C13.9329966,15.5 15.5,13.9329966 15.5,12 C15.5,10.0670034 13.9329966,8.5 12,8.5 C10.0670034,8.5 8.5,10.0670034 8.5,12 C8.5,13.9329966 10.0670034,15.5 12,15.5 Z" id="Combined-Shape" fill="#000000" fill-rule="nonzero"></path>
    </g>
</svg>
